X:169
T:Lad O'Beirne's
M:4/4
L:1/8
R:reel
D:Patrick Street: All in Good Time
D:Sharon Shannon: Each Little Thing
D:Sharon Shannon: Spellbound
N:Patrick Street plays Frank Quinn's Reel - ~ - Murphy's Reel
N:Sharon Shannon plays ~ - Dowd's Favorite - The Mouth of the Tobique.
K:Dm
fe|:d2cA dAcA|GcAF GFDF|CF~F2 CFAc|dcde fagf|
d2cA dAcA|GcAF GFDF|CF~F2 CFAd|1 cbag f2fe:|2 cbag f2fg|
a2fg afgf|dgfd cAAB|cBcd cdfa|gfga g2fg|
a2fg afgf|dgfd cAAB|cBcd cdfa|gfga f2fg|
a2fg afgf|dgfd cAAB|cBcd cdfa|gfga bagf|
~a3g ~f3c|defd cAFD|CF~F2 CFAd|cbag f4||
